public/images/case-studies/megalot/feature3.svg

<svg width="64" height="64" viewBox="0 0 64 64" fill="none" xmlns="http://www.w3.org/2000/svg">
<path d="M32.0003 45.4194C26.8772 45.4194 22.71 49.5877 22.71 54.7098C22.71 59.8318 26.8772 64.0001 32.0003 64.0001C37.1234 64.0001 41.2906 59.8318 41.2906 54.7098C41.2906 49.5877 37.1234 45.4194 32.0003 45.4194ZM28.054 60.7557C28.5691 59.0411 30.1649 57.8065 32.0003 57.8065C33.8356 57.8065 35.4315 59.0411 35.9466 60.7557C34.8101 61.4989 33.4558 61.9356 32.0003 61.9356C30.5448 61.9356 29.1905 61.4989 28.054 60.7557ZM29.9358 53.6775C29.9358 52.5389 30.8617 51.613 32.0003 51.613C33.1389 51.613 34.0648 52.5389 34.0648 53.6775C34.0648 54.8161 33.1389 55.742 32.0003 55.742C30.8617 55.742 29.9358 54.8161 29.9358 53.6775ZM37.5776 59.2981C37.016 58.1203 36.1045 57.1531 34.9742 56.5276C35.6865 55.7864 36.1293 54.7841 36.1293 53.6775C36.1293 51.4003 34.2774 49.5485 32.0003 49.5485C29.7231 49.5485 27.8713 51.4003 27.8713 53.6775C27.8713 54.7841 28.3141 55.7864 29.0263 56.5286C27.896 57.1541 26.9856 58.1203 26.423 59.2992C25.3938 58.0491 24.7745 56.4501 24.7745 54.7098C24.7745 50.7252 28.0168 47.4839 32.0003 47.4839C35.9838 47.4839 39.2261 50.7252 39.2261 54.7098C39.2261 56.4501 38.6067 58.0491 37.5776 59.2981Z" fill="#FF6B00"/>
<path d="M32 0C26.8769 0 22.7097 4.16826 22.7097 9.29032C22.7097 10.4929 22.9471 11.6387 23.3641 12.6947C22.8325 12.5089 22.271 12.3871 21.6774 12.3871C19.9701 12.3871 18.5806 13.7775 18.5806 15.4839V18.0356C18.5806 19.9205 17.5763 21.6939 15.9597 22.6643C14.433 23.5809 13.2821 25.0157 12.7205 26.7035L12.6968 26.7757L0 25.7177V43.3548H32C33.7074 43.3548 35.0968 41.9654 35.0968 40.2581C35.0968 39.8503 35.0132 39.4632 34.8697 39.1071C36.1858 38.7489 37.1613 37.5566 37.1613 36.129C37.1613 35.3332 36.8506 34.6137 36.3561 34.0645C36.8516 33.5154 37.1613 32.7959 37.1613 32C37.1613 31.2041 36.8506 30.4846 36.3561 29.9355C36.8516 29.3863 37.1613 28.6668 37.1613 27.871C37.1613 26.1646 35.7729 24.7742 34.0655 24.7742H28.9032C27.7646 24.7742 26.8387 23.8483 26.8387 22.7097V17.5484C26.8387 17.3502 26.8015 17.1623 26.7799 16.9703C28.2694 17.985 30.0655 18.5806 32 18.5806C37.1231 18.5806 41.2903 14.4124 41.2903 9.29032C41.2903 4.16826 37.1231 0 32 0ZM12.3871 41.2903H2.06452V27.9608L12.3871 28.8206V41.2903ZM28.9032 26.8387H34.0655C34.6343 26.8387 35.0968 27.3022 35.0968 27.871C35.0968 28.4397 34.6343 28.9032 34.0645 28.9032H26.8387V30.9677H34.0645C34.6343 30.9677 35.0968 31.4312 35.0968 32C35.0968 32.5688 34.6343 33.0323 34.0645 33.0323H26.8387V35.0968H34.0645C34.6343 35.0968 35.0968 35.5603 35.0968 36.129C35.0968 36.6978 34.6343 37.1613 34.0645 37.1613H26.8387V39.2258H32C32.5698 39.2258 33.0323 39.6883 33.0323 40.2581C33.0323 40.8279 32.5698 41.2903 32 41.2903H14.4516V28.0382L14.6797 27.3569C15.0865 26.1357 15.9174 25.0983 17.023 24.4356C19.2578 23.0947 20.6462 20.6421 20.6462 18.0366V15.4849C20.6462 14.9161 21.1097 14.4526 21.6784 14.4526C23.3858 14.4526 24.7752 15.8421 24.7752 17.5494V22.7107C24.7742 24.9868 26.6261 26.8387 28.9032 26.8387ZM32 16.5161C28.0165 16.5161 24.7742 13.2748 24.7742 9.29032C24.7742 5.30581 28.0165 2.06452 32 2.06452C35.9835 2.06452 39.2258 5.30581 39.2258 9.29032C39.2258 13.2748 35.9835 16.5161 32 16.5161Z" fill="#7F8284"/>
<path d="M54.7093 22.7097C49.5862 22.7097 45.4189 26.878 45.4189 32C45.4189 37.1221 49.5862 41.2904 54.7093 41.2904C59.8324 41.2904 63.9996 37.1221 63.9996 32C63.9996 26.878 59.8324 22.7097 54.7093 22.7097ZM54.7093 39.2258C50.7258 39.2258 47.4835 35.9846 47.4835 32C47.4835 28.0155 50.7258 24.7742 54.7093 24.7742C58.6928 24.7742 61.9351 28.0155 61.9351 32C61.9351 35.9846 58.6928 39.2258 54.7093 39.2258Z" fill="#7F8284"/>
<path d="M53.8342 18.0965L55.2132 20.2941L56.7534 12.5894L54.7291 12.1837L54.1758 14.9532C51.5085 11.4229 48.1578 8.78136 43.7913 6.73853L42.917 8.60898C47.7129 10.8521 51.1823 13.8673 53.8342 18.0965Z" fill="#7F8284"/>
<path d="M6.73828 20.2084L8.60977 21.0827C10.8508 16.2889 13.866 12.8195 18.0962 10.1656L20.2929 8.7875L12.5891 7.24634L12.1845 9.26956L14.954 9.82389C11.4216 12.4923 8.78009 15.843 6.73828 20.2084Z" fill="#7F8284"/>
<path d="M10.1653 45.9035L8.78622 43.7058L7.24609 51.4106L9.27035 51.8163L9.82364 49.0467C12.491 52.577 15.8417 55.2186 20.2082 57.2614L21.0835 55.391C16.2866 53.1479 12.8172 50.1327 10.1653 45.9035Z" fill="#7F8284"/>
<path d="M57.2616 43.7916L55.3901 42.9172C53.1491 47.711 50.1339 51.1805 45.9037 53.8344L43.707 55.2125L51.4108 56.7536L51.8165 54.7294L49.0469 54.175C52.5783 51.5077 55.2198 48.157 57.2616 43.7916Z" fill="#7F8284"/>
<path fill-rule="evenodd" clip-rule="evenodd" d="M36.7239 7.68957L31.2397 13.4504L28.2754 10.3366L29.7239 8.95761L31.2397 10.5498L35.2754 6.31055L36.7239 7.68957Z" fill="#FF6B00"/>
<path fill-rule="evenodd" clip-rule="evenodd" d="M59.7239 29.6896L54.2397 35.4504L51.2754 32.3366L52.7239 30.9576L54.2397 32.5498L58.2754 28.3105L59.7239 29.6896Z" fill="#FF6B00"/>
</svg>

<svg xmlns="http://www.w3.org/2000/svg" width="64" height="64" fill="none" xmlns:v="https://vecta.io/nano"><path d="M32 45.419c-5.123 0-9.29 4.168-9.29 9.29S26.877 64 32 64s9.29-4.168 9.29-9.29-4.167-9.29-9.29-9.29zm-3.946 15.336c.515-1.715 2.111-2.949 3.946-2.949s3.431 1.235 3.946 2.949c-1.136.743-2.491 1.18-3.946 1.18s-2.81-.437-3.946-1.18zm1.882-7.078c0-1.139.926-2.065 2.065-2.065s2.064.926 2.064 2.065-.926 2.064-2.064 2.064-2.065-.926-2.065-2.064zm7.642 5.621c-.562-1.178-1.473-2.145-2.603-2.77.712-.741 1.155-1.743 1.155-2.85 0-2.277-1.852-4.129-4.129-4.129s-4.129 1.852-4.129 4.129c0 1.107.443 2.109 1.155 2.851-1.13.626-2.041 1.592-2.603 2.771a7.2 7.2 0 0 1-1.648-4.589c0-3.985 3.242-7.226 7.226-7.226s7.226 3.241 7.226 7.226c0 1.74-.619 3.339-1.649 4.588z" fill="#ff6b00"/><path d="M32 0c-5.123 0-9.29 4.168-9.29 9.29a9.24 9.24 0 0 0 .654 3.404c-.532-.186-1.093-.308-1.687-.308a3.1 3.1 0 0 0-3.097 3.097v2.552c0 1.885-1.004 3.658-2.621 4.629a7.46 7.46 0 0 0-3.239 4.039l-.024.072L0 25.718v17.637h32a3.1 3.1 0 0 0 3.097-3.097 3.07 3.07 0 0 0-.227-1.151c1.316-.358 2.292-1.55 2.292-2.978 0-.796-.311-1.515-.805-2.064.495-.549.805-1.269.805-2.065s-.311-1.515-.805-2.064c.495-.549.805-1.269.805-2.065a3.1 3.1 0 0 0-3.096-3.097h-5.162c-1.139 0-2.064-.926-2.064-2.064v-5.161c0-.198-.037-.386-.059-.578a9.24 9.24 0 0 0 5.22 1.61c5.123 0 9.29-4.168 9.29-9.29S37.123 0 32 0zM12.387 41.29H2.065V27.96l10.323.86v12.47zm16.516-14.452h5.162c.569 0 1.031.463 1.031 1.032s-.462 1.032-1.032 1.032h-7.226v2.065h7.226c.57 0 1.032.463 1.032 1.032s-.462 1.032-1.032 1.032h-7.226v2.065h7.226c.57 0 1.032.463 1.032 1.032s-.462 1.032-1.032 1.032h-7.226v2.065H32a1.03 1.03 0 0 1 1.032 1.032c0 .57-.462 1.033-1.032 1.033H14.452V28.038l.228-.681c.407-1.221 1.238-2.259 2.343-2.921a7.5 7.5 0 0 0 3.623-6.399v-2.552c0-.569.463-1.032 1.032-1.032a3.1 3.1 0 0 1 3.097 3.097v5.161c-.001 2.276 1.851 4.128 4.128 4.128zM32 16.516c-3.983 0-7.226-3.241-7.226-7.226S28.017 2.065 32 2.065s7.226 3.241 7.226 7.226-3.242 7.226-7.226 7.226zm22.709 6.194c-5.123 0-9.29 4.168-9.29 9.29s4.167 9.29 9.29 9.29S64 37.122 64 32s-4.167-9.29-9.29-9.29zm0 16.516c-3.983 0-7.226-3.241-7.226-7.226s3.242-7.226 7.226-7.226 7.226 3.241 7.226 7.226-3.242 7.226-7.226 7.226zm-.875-21.129l1.379 2.198 1.54-7.705-2.024-.406-.553 2.77c-2.667-3.53-6.018-6.172-10.385-8.215l-.874 1.87c4.796 2.243 8.265 5.258 10.917 9.488zM6.738 20.208l1.871.874c2.241-4.794 5.256-8.263 9.486-10.917l2.197-1.378-7.704-1.541-.405 2.023 2.77.554c-3.532 2.668-6.174 6.019-8.216 10.385zm3.427 25.696l-1.379-2.198-1.54 7.705 2.024.406.553-2.77c2.667 3.53 6.018 6.172 10.385 8.215l.875-1.87c-4.797-2.243-8.266-5.258-10.918-9.487zm47.097-2.112l-1.872-.874c-2.241 4.794-5.256 8.263-9.486 10.917l-2.197 1.378 7.704 1.541.406-2.024-2.77-.554c3.531-2.667 6.173-6.018 8.215-10.383z" fill="#7f8284"/><path d="M36.724 7.69l-5.484 5.76-2.964-3.114 1.448-1.379 1.516 1.592 4.036-4.239 1.449 1.379zm23 22l-5.484 5.76-2.964-3.114 1.449-1.379 1.516 1.592 4.036-4.239 1.449 1.379z" fill="#ff6b00" fill-rule="evenodd"/></svg>
